X:1
T:Tryggare Kan Ingen Vara, LMD
T:Tryggare Kan Ingen Vara, LMD
T:Traditional Swedish Melody
T:Public Domain Courtesy of the Cyber Hymnal™
C:Traditional Swedish Melody
Z:Public Domain
Z:Courtesy of the Cyber Hymnal™
%%score ( 1 2 ) 3
L:1/8
Q:1/4=95
M:3/4
K:D
V:1 treble 
V:2 treble 
V:3 bass 
V:1
 D[DE] | [DF]2 [DF]2 [DA][DF] | [DF]2 [CE]2 [CE][DF] | [CG]2 [CB]2 [DA][EG] | [EG]2 [DF]2 DD | %5
 [DB]2 [GB]2 [Gd][GB] | [GB]2 [FA]2 [DF][^DA] | [EA]2 [EG]2 C[CE] | [CE]2 D2 |] %9
V:2
 D x | x6 | x6 | x6 | x6 | x6 | x6 | x6 | x2 D2 |] %9
V:3
 [D,F,][D,G,] | [D,A,]2 [D,A,]2 [F,A,][D,A,] | [A,,A,]2 [A,,A,]2 [G,A,][F,A,] | %3
 [E,A,]2 [A,,G,]2 [B,,F,][C,A,] | [D,A,]2 [D,A,]2 [D,D][D,=C] | [G,B,]2 [G,D]2 [B,D][G,D] | %6
 [D,D]2 [D,D]2 [D,A,][B,,B,] | [E,B,]2 [E,B,]2 A,[A,,G,] | [A,,G,]2 [D,F,]2 |] %9

